src/topics/icons/opencart.svg

<svg height="100" preserveAspectRatio="xMidYMid" viewBox="0 0 512 100" width="512" xmlns="http://www.w3.org/2000/svg" xmlns:xlink="http://www.w3.org/1999/xlink"><linearGradient id="a" x1="50%" x2="50%" y1="79.104354%" y2="0%"><stop offset="0" stop-color="#04b6f0"/><stop offset="1" stop-color="#3ecaf0"/></linearGradient><path d="m50.751 52.353c0 7.648-2.274 14.09-6.838 19.305-4.763 5.464-10.952 8.207-18.528 8.207-7.596 0-13.765-2.743-18.528-8.207-4.566-5.215-6.857-11.657-6.857-19.305 0-7.669 2.291-14.109 6.857-19.305 4.816-5.413 11.005-8.118 18.528-8.118 7.576 0 13.765 2.705 18.528 8.118 4.564 5.196 6.838 11.636 6.838 19.305zm-15.084 0c0-3.464-.829-6.388-2.489-8.752-1.857-2.687-4.456-4.022-7.793-4.022-3.338 0-5.936 1.335-7.795 4.022-1.677 2.364-2.507 5.288-2.507 8.752 0 3.445.83 6.404 2.507 8.839 1.859 2.687 4.457 4.024 7.795 4.024 3.337 0 5.936-1.337 7.793-4.024 1.66-2.435 2.489-5.394 2.489-8.839zm69.623 0c0 7.144-2.057 13.386-6.189 18.726-4.42 5.845-10.121 8.786-17.049 8.786-4.89 0-9.038-1.425-12.43-4.239 0 .648.072 2.218.217 4.728.144 2.523.215 4.58.215 6.204 0 8.969-2.67 13.442-8.009 13.442-2.184 0-3.969-.776-5.395-2.31-1.407-1.55-2.111-3.412-2.111-5.61v-58.328c0-2.129.722-3.97 2.165-5.52 1.443-1.534 3.23-2.308 5.359-2.308 3.21 0 5.556 1.602 7.036 4.798 3.157-3.861 7.469-5.792 12.935-5.792 6.946 0 12.629 2.885 17.067 8.678 4.114 5.359 6.189 11.601 6.189 18.745zm-15.084 0c0-3.464-.846-6.388-2.506-8.752-1.86-2.687-4.457-4.022-7.795-4.022-3.337 0-5.935 1.335-7.794 4.022-1.66 2.364-2.489 5.288-2.489 8.752 0 3.445.829 6.404 2.489 8.839 1.859 2.687 4.457 4.024 7.794 4.024 3.338 0 5.935-1.337 7.795-4.024 1.66-2.435 2.506-5.394 2.506-8.839zm69.965-1.622c0 2.523-.596 4.255-1.787 5.231-1.19.955-3.048 1.442-5.556 1.442h-27.225c0 2.887 1.354 5.105 4.06 6.655 2.183 1.211 4.853 1.826 8.01 1.826 2.455 0 5.395-.815 8.841-2.418 3.446-1.625 5.664-2.42 6.622-2.42 1.749 0 3.228.632 4.455 1.931 1.208 1.282 1.823 2.833 1.823 4.62 0 4.129-3.085 7.344-9.257 9.652-4.708 1.731-9.489 2.615-14.377 2.615-7.866 0-14.217-2.615-19.07-7.828-4.854-5.215-7.288-11.764-7.288-19.684 0-7.543 2.525-13.983 7.576-19.357 5.033-5.379 11.295-8.066 18.763-8.066 6.946 0 12.755 2.544 17.411 7.631 4.653 5.089 6.999 11.15 6.999 18.17zm-15.082-3.791c-.073-2.31-1.137-4.402-3.194-6.298-2.057-1.893-4.239-2.83-6.549-2.83-2.381 0-4.601.937-6.657 2.83-2.056 1.896-3.086 3.988-3.086 6.298zm65.76 24.011c0 2.203-.704 4.06-2.11 5.612-1.426 1.535-3.212 2.311-5.395 2.311-5.268 0-7.903-4.186-7.903-12.539 0-1.606.109-4.131.325-7.613.235-3.465.344-6.008.344-7.614 0-8.86-2.869-13.296-8.588-13.296-5.72 0-8.57 4.436-8.57 13.296 0 1.606.09 4.149.252 7.614.181 3.482.271 6.007.271 7.613 0 8.353-2.598 12.539-7.793 12.539-2.184 0-3.969-.776-5.377-2.311-1.425-1.552-2.129-3.409-2.129-5.612v-37.215c0-2.187.704-4.042 2.129-5.54 1.408-1.516 3.212-2.272 5.395-2.272 3.608 0 6.115 1.602 7.522 4.798 2.436-3.861 6.747-5.792 12.918-5.792 5.719 0 10.266 1.514 13.603 4.527 3.41 3.232 5.106 7.668 5.106 13.316zm47.32-1.603c0 3.409-2.214 6.114-6.655 8.101-3.535 1.604-7.269 2.416-11.203 2.416-7.597 0-13.766-2.743-18.529-8.207-4.564-5.215-6.855-11.657-6.855-19.305 0-7.669 2.327-14.144 6.999-19.449 4.673-5.321 10.788-7.974 18.385-7.974 4.384 0 8.155.649 11.295 1.931 4.381 1.732 6.563 4.437 6.563 8.118 0 1.857-.574 3.499-1.731 4.925-1.153 1.407-2.634 2.129-4.437 2.129-1.229 0-2.996-.415-5.305-1.225-2.308-.832-4.147-1.229-5.5-1.229-3.591 0-6.388 1.281-8.39 3.842-1.86 2.31-2.797 5.269-2.797 8.932 0 3.445.83 6.369 2.509 8.732 1.856 2.761 4.473 4.131 7.81 4.131 1.481 0 3.5-.433 6.079-1.319 2.582-.863 4.441-1.314 5.594-1.314 1.68 0 3.12.72 4.349 2.128 1.209 1.425 1.819 2.957 1.819 4.637zm54.829 1.603c0 2.203-.702 4.06-2.111 5.612-1.424 1.535-3.227 2.311-5.414 2.311-3.283 0-5.626-1.607-7.034-4.8-3.156 3.862-7.469 5.791-12.935 5.791-6.998 0-12.736-2.941-17.177-8.786-4.041-5.34-6.076-11.582-6.076-18.726s2.035-13.386 6.076-18.745c4.513-5.793 10.231-8.678 17.177-8.678 5.466 0 9.779 1.931 12.935 5.792 1.408-3.196 3.751-4.798 7.034-4.798 2.131 0 3.918.774 5.363 2.308 1.44 1.55 2.162 3.373 2.162 5.504zm-15.082-18.598c0-3.464-.829-6.388-2.489-8.752-1.931-2.687-4.529-4.022-7.793-4.022-3.339 0-5.936 1.335-7.796 4.022-1.675 2.364-2.505 5.288-2.505 8.752 0 3.445.809 6.404 2.414 8.839 1.915 2.687 4.548 4.024 7.887 4.024 3.336 0 5.933-1.337 7.793-4.024 1.66-2.435 2.489-5.394 2.489-8.839zm53.565-19.612c0 3.229-1.569 5.448-4.709 6.656-2.904.976-5.793 1.97-8.677 2.995-3.16 1.806-4.729 5.161-4.729 10.033v18.526c0 2.203-.722 4.06-2.126 5.612-1.428 1.535-3.232 2.311-5.414 2.311-2.199 0-4.006-.776-5.411-2.311-1.428-1.552-2.13-3.409-2.13-5.612v-37.215c0-2.187.702-4.042 2.11-5.54 1.425-1.516 3.232-2.272 5.415-2.272 3.606 0 6.112 1.602 7.521 4.798 3.231-3.861 6.695-5.792 10.429-5.792 2.127 0 3.95.774 5.466 2.308 1.496 1.552 2.255 3.392 2.255 5.503zm39.348.686c0 3.355-1.317 5.466-3.93 6.37-1.285.45-3.974.684-8.068.684v30.47c0 2.203-.722 4.06-2.126 5.612-1.429 1.535-3.232 2.311-5.415 2.311-2.126 0-3.934-.776-5.378-2.311-1.44-1.552-2.163-3.409-2.163-5.612v-30.47c-3.104 0-5.358-.397-6.782-1.171-1.947-1.083-2.909-3.05-2.909-5.883 0-2.831.994-4.762 2.996-5.792 1.353-.758 3.591-1.153 6.695-1.153v-6.459c0-7.595 2.506-11.383 7.541-11.383 5.016 0 7.541 3.788 7.541 11.383v6.459c4.094 0 6.783.234 8.068.684 2.613.902 3.93 2.997 3.93 6.261zm121.171-9.1614118c-.041136-4.6308633-8.598037-6.7325882-30.749-6.7325882-51.976 0-65.162-2.22-79.274-17.069 5.936 8.916 9.184 25.639 64.121 24.807 57.318-.883 22.351 14.779 12.177 32.474 18.346753-16.3757418 33.669893-27.1695793 33.725-33.4120611v-.0673533zm-73.037 47.5534118c0 4.331-3.515 7.847-7.848 7.847-4.349 0-7.865-3.516-7.865-7.847 0-4.349 3.516-7.866 7.865-7.866 4.333 0 7.848 3.517 7.848 7.866zm35.793 0c0 4.331-3.515 7.847-7.848 7.847-4.345 0-7.864-3.516-7.864-7.847 0-4.349 3.519-7.866 7.864-7.866 4.333 0 7.848 3.517 7.848 7.866z" fill="url(#a)"/></svg>

<?xml version="1.0" encoding="UTF-8" standalone="no"?>
<svg width="512px" height="100px" viewBox="0 0 512 100" version="1.1" xmlns="http://www.w3.org/2000/svg" xmlns:xlink="http://www.w3.org/1999/xlink" preserveAspectRatio="xMidYMid">
    <defs>
        <linearGradient x1="50%" y1="79.1043536%" x2="50%" y2="0%" id="linearGradient-1">
            <stop stop-color="#04B6F0" offset="0%"></stop>
            <stop stop-color="#3ECAF0" offset="100%"></stop>
        </linearGradient>
    </defs>
    <g>
        <path d="M50.751,52.353 C50.751,60.001 48.477,66.443 43.913,71.658 C39.15,77.122 32.961,79.865 25.385,79.865 C17.789,79.865 11.62,77.122 6.857,71.658 C2.291,66.443 0,60.001 0,52.353 C0,44.684 2.291,38.244 6.857,33.048 C11.673,27.635 17.862,24.93 25.385,24.93 C32.961,24.93 39.15,27.635 43.913,33.048 C48.477,38.244 50.751,44.684 50.751,52.353 L50.751,52.353 Z M35.667,52.353 C35.667,48.889 34.838,45.965 33.178,43.601 C31.321,40.914 28.722,39.579 25.385,39.579 C22.047,39.579 19.449,40.914 17.59,43.601 C15.913,45.965 15.083,48.889 15.083,52.353 C15.083,55.798 15.913,58.757 17.59,61.192 C19.449,63.879 22.047,65.216 25.385,65.216 C28.722,65.216 31.321,63.879 33.178,61.192 C34.838,58.757 35.667,55.798 35.667,52.353 Z M105.29,52.353 C105.29,59.497 103.233,65.739 99.101,71.079 C94.681,76.924 88.98,79.865 82.052,79.865 C77.162,79.865 73.014,78.44 69.622,75.626 C69.622,76.274 69.694,77.844 69.839,80.354 C69.983,82.877 70.054,84.934 70.054,86.558 C70.054,95.527 67.384,100 62.045,100 C59.861,100 58.076,99.224 56.65,97.69 C55.243,96.14 54.539,94.278 54.539,92.08 L54.539,33.752 C54.539,31.623 55.261,29.782 56.704,28.232 C58.147,26.698 59.934,25.924 62.063,25.924 C65.273,25.924 67.619,27.526 69.099,30.722 C72.256,26.861 76.568,24.93 82.034,24.93 C88.98,24.93 94.663,27.815 99.101,33.608 C103.215,38.967 105.29,45.209 105.29,52.353 Z M90.206,52.353 C90.206,48.889 89.36,45.965 87.7,43.601 C85.84,40.914 83.243,39.579 79.905,39.579 C76.568,39.579 73.97,40.914 72.111,43.601 C70.451,45.965 69.622,48.889 69.622,52.353 C69.622,55.798 70.451,58.757 72.111,61.192 C73.97,63.879 76.568,65.216 79.905,65.216 C83.243,65.216 85.84,63.879 87.7,61.192 C89.36,58.757 90.206,55.798 90.206,52.353 Z M160.171,50.731 C160.171,53.254 159.575,54.986 158.384,55.962 C157.194,56.917 155.336,57.404 152.828,57.404 L125.603,57.404 C125.603,60.291 126.957,62.509 129.663,64.059 C131.846,65.27 134.516,65.885 137.673,65.885 C140.128,65.885 143.068,65.07 146.514,63.467 C149.96,61.842 152.178,61.047 153.136,61.047 C154.885,61.047 156.364,61.679 157.591,62.978 C158.799,64.26 159.414,65.811 159.414,67.598 C159.414,71.727 156.329,74.942 150.157,77.25 C145.449,78.981 140.668,79.865 135.78,79.865 C127.914,79.865 121.563,77.25 116.71,72.037 C111.856,66.822 109.422,60.273 109.422,52.353 C109.422,44.81 111.947,38.37 116.998,32.996 C122.031,27.617 128.293,24.93 135.761,24.93 C142.707,24.93 148.516,27.474 153.172,32.561 C157.825,37.65 160.171,43.711 160.171,50.731 Z M145.089,46.94 C145.016,44.63 143.952,42.538 141.895,40.642 C139.838,38.749 137.656,37.812 135.346,37.812 C132.965,37.812 130.745,38.749 128.689,40.642 C126.633,42.538 125.603,44.63 125.603,46.94 L145.089,46.94 Z M210.849,70.951 C210.849,73.154 210.145,75.011 208.739,76.563 C207.313,78.098 205.527,78.874 203.344,78.874 C198.076,78.874 195.441,74.688 195.441,66.335 C195.441,64.729 195.55,62.204 195.766,58.722 C196.001,55.257 196.11,52.714 196.11,51.108 C196.11,42.248 193.241,37.812 187.522,37.812 C181.802,37.812 178.952,42.248 178.952,51.108 C178.952,52.714 179.042,55.257 179.204,58.722 C179.385,62.204 179.475,64.729 179.475,66.335 C179.475,74.688 176.877,78.874 171.682,78.874 C169.498,78.874 167.713,78.098 166.305,76.563 C164.88,75.011 164.176,73.154 164.176,70.951 L164.176,33.736 C164.176,31.549 164.88,29.694 166.305,28.196 C167.713,26.68 169.517,25.924 171.7,25.924 C175.308,25.924 177.815,27.526 179.222,30.722 C181.658,26.861 185.969,24.93 192.14,24.93 C197.859,24.93 202.406,26.444 205.743,29.457 C209.153,32.689 210.849,37.125 210.849,42.773 L210.849,70.951 Z M258.169,69.348 C258.169,72.757 255.955,75.462 251.514,77.449 C247.979,79.053 244.245,79.865 240.311,79.865 C232.714,79.865 226.545,77.122 221.782,71.658 C217.218,66.443 214.927,60.001 214.927,52.353 C214.927,44.684 217.254,38.209 221.926,32.904 C226.599,27.583 232.714,24.93 240.311,24.93 C244.695,24.93 248.466,25.579 251.606,26.861 C255.987,28.593 258.169,31.298 258.169,34.979 C258.169,36.836 257.595,38.478 256.438,39.904 C255.285,41.311 253.804,42.033 252.001,42.033 C250.772,42.033 249.005,41.618 246.696,40.808 C244.388,39.976 242.549,39.579 241.196,39.579 C237.605,39.579 234.808,40.86 232.806,43.421 C230.946,45.731 230.009,48.69 230.009,52.353 C230.009,55.798 230.839,58.722 232.518,61.085 C234.374,63.846 236.991,65.216 240.328,65.216 C241.809,65.216 243.828,64.783 246.407,63.897 C248.989,63.034 250.848,62.583 252.001,62.583 C253.681,62.583 255.121,63.303 256.35,64.711 C257.559,66.136 258.169,67.668 258.169,69.348 Z M312.998,70.951 C312.998,73.154 312.296,75.011 310.887,76.563 C309.463,78.098 307.66,78.874 305.473,78.874 C302.19,78.874 299.847,77.267 298.439,74.074 C295.283,77.936 290.97,79.865 285.504,79.865 C278.506,79.865 272.768,76.924 268.327,71.079 C264.286,65.739 262.251,59.497 262.251,52.353 C262.251,45.209 264.286,38.967 268.327,33.608 C272.84,27.815 278.558,24.93 285.504,24.93 C290.97,24.93 295.283,26.861 298.439,30.722 C299.847,27.526 302.19,25.924 305.473,25.924 C307.604,25.924 309.391,26.698 310.836,28.232 C312.276,29.782 312.998,31.605 312.998,33.736 L312.998,70.951 Z M297.916,52.353 C297.916,48.889 297.087,45.965 295.427,43.601 C293.496,40.914 290.898,39.579 287.634,39.579 C284.295,39.579 281.698,40.914 279.838,43.601 C278.163,45.965 277.333,48.889 277.333,52.353 C277.333,55.798 278.142,58.757 279.747,61.192 C281.662,63.879 284.295,65.216 287.634,65.216 C290.97,65.216 293.567,63.879 295.427,61.192 C297.087,58.757 297.916,55.798 297.916,52.353 Z M351.481,32.741 C351.481,35.97 349.912,38.189 346.772,39.397 C343.868,40.373 340.979,41.367 338.095,42.392 C334.935,44.198 333.366,47.553 333.366,52.425 L333.366,70.951 C333.366,73.154 332.644,75.011 331.24,76.563 C329.812,78.098 328.008,78.874 325.826,78.874 C323.627,78.874 321.82,78.098 320.415,76.563 C318.987,75.011 318.285,73.154 318.285,70.951 L318.285,33.736 C318.285,31.549 318.987,29.694 320.395,28.196 C321.82,26.68 323.627,25.924 325.81,25.924 C329.416,25.924 331.922,27.526 333.331,30.722 C336.562,26.861 340.026,24.93 343.76,24.93 C345.887,24.93 347.71,25.704 349.226,27.238 C350.722,28.79 351.481,30.63 351.481,32.741 Z M390.829,33.427 C390.829,36.782 389.512,38.893 386.899,39.797 C385.614,40.247 382.925,40.481 378.831,40.481 L378.831,70.951 C378.831,73.154 378.109,75.011 376.705,76.563 C375.276,78.098 373.473,78.874 371.29,78.874 C369.164,78.874 367.356,78.098 365.912,76.563 C364.472,75.011 363.749,73.154 363.749,70.951 L363.749,40.481 C360.645,40.481 358.391,40.084 356.967,39.31 C355.02,38.227 354.058,36.26 354.058,33.427 C354.058,30.596 355.052,28.665 357.054,27.635 C358.407,26.877 360.645,26.482 363.749,26.482 L363.749,20.023 C363.749,12.428 366.255,8.64 371.29,8.64 C376.306,8.64 378.831,12.428 378.831,20.023 L378.831,26.482 C382.925,26.482 385.614,26.716 386.899,27.166 C389.512,28.068 390.829,30.163 390.829,33.427 Z M512,24.2655882 C511.958864,19.6347249 503.401963,17.533 481.251,17.533 C429.275,17.533 416.089,15.313 401.977,0.464 C407.913,9.38 411.161,26.103 466.098,25.271 C523.416,24.388 488.449,40.05 478.275,57.745 C496.621753,41.3692582 511.944893,30.5754207 512,24.3329389 L512,24.2655856 L512,24.2655882 Z M438.963,71.819 C438.963,76.15 435.448,79.666 431.115,79.666 C426.766,79.666 423.25,76.15 423.25,71.819 C423.25,67.47 426.766,63.953 431.115,63.953 C435.448,63.953 438.963,67.47 438.963,71.819 Z M474.756,71.819 C474.756,76.15 471.241,79.666 466.908,79.666 C462.563,79.666 459.044,76.15 459.044,71.819 C459.044,67.47 462.563,63.953 466.908,63.953 C471.241,63.953 474.756,67.47 474.756,71.819 Z" fill="url(#linearGradient-1)"></path>
    </g>
</svg>
